img/icons/vk.svg

<svg width="20" height="20" viewBox="0 0 20 20" fill="none" xmlns="http://www.w3.org/2000/svg">
<g clip-path="url(#clip0_256:36)">
<path d="M19.5481 4.81996C19.3389 5.48846 19.0328 6.12269 18.6397 6.70246L18.6556 6.67746C18.2822 7.29968 17.8364 8.01857 17.3181 8.83413C16.8736 9.47802 16.6384 9.81135 16.6122 9.83413C16.4935 9.98287 16.4166 10.1607 16.3897 10.3491L16.3889 10.355C16.4101 10.5248 16.489 10.6821 16.6122 10.8008L16.9456 11.1725C18.7289 13.0052 19.732 14.2686 19.9547 14.9625C19.997 15.0764 20.0106 15.1991 19.9943 15.3195C19.978 15.44 19.9324 15.5546 19.8614 15.6533L19.8631 15.6508C19.7792 15.7373 19.6769 15.8039 19.5638 15.8456C19.4507 15.8873 19.3297 15.903 19.2097 15.8916H19.2131H17.0164C16.7356 15.8916 16.4772 15.7933 16.2747 15.63L16.2772 15.6316C15.9881 15.3946 15.7227 15.13 15.4847 14.8416L15.4772 14.8316C15.0934 14.3977 14.7528 14.0325 14.4556 13.7358C13.4656 12.7947 12.735 12.3241 12.2639 12.3241C12.1119 12.3105 11.9598 12.3503 11.8339 12.4366L11.8364 12.435C11.7823 12.5028 11.7426 12.5809 11.7197 12.6646C11.6968 12.7482 11.6911 12.8357 11.7031 12.9216V12.9183C11.6707 13.3071 11.6601 13.6975 11.6714 14.0875V14.0733V15.0391C11.6951 15.1545 11.687 15.2741 11.6479 15.3852C11.6089 15.4963 11.5404 15.5948 11.4497 15.67L11.4489 15.6708C11.0269 15.8615 10.5623 15.9382 10.1014 15.8933L10.1122 15.8941C8.85074 15.8725 7.61903 15.5072 6.54974 14.8375L6.57891 14.8541C5.3459 14.1108 4.28904 13.1085 3.48141 11.9166L3.45891 11.8816C2.67494 10.8362 1.98582 9.72289 1.39974 8.55496L1.34141 8.42663C0.950873 7.67033 0.607712 6.89049 0.313906 6.09163L0.263906 5.93746C0.127686 5.52274 0.0409728 5.09338 0.00557292 4.6583L0.00390625 4.63746C0.00390625 4.21635 0.251684 4.0058 0.74724 4.0058H2.93891C3.16048 3.98844 3.38043 4.05541 3.55474 4.1933L3.55307 4.19163C3.71974 4.37413 3.84307 4.5983 3.90391 4.8483L3.90641 4.8583C4.26848 5.89523 4.71065 6.90243 5.22891 7.8708L5.17307 7.75663C5.54765 8.51748 6.00096 9.23697 6.52557 9.9033L6.50641 9.87746C6.95085 10.423 7.29752 10.6958 7.54641 10.6958L7.57307 10.6966C7.63167 10.6967 7.68925 10.6814 7.74002 10.6521C7.79078 10.6228 7.83294 10.5807 7.86224 10.53L7.86307 10.5283C7.94286 10.3194 7.97448 10.0952 7.95557 9.87246V9.87746V6.64496C7.94 6.27846 7.84923 5.91907 7.68891 5.58913L7.69557 5.60496C7.59836 5.39527 7.47213 5.2003 7.32057 5.0258L7.32307 5.02913C7.18334 4.88962 7.09243 4.70868 7.06391 4.5133L7.06307 4.5083C7.06307 4.36663 7.12807 4.23913 7.22974 4.1558L7.23057 4.15496C7.3352 4.05914 7.47204 4.00619 7.61391 4.00663H11.0756C11.1625 3.99649 11.2505 4.00808 11.3318 4.04037C11.4131 4.07266 11.4851 4.12464 11.5414 4.19163L11.5422 4.19246C11.6475 4.38694 11.6936 4.60796 11.6747 4.8283V4.82413V9.13496C11.6615 9.30499 11.701 9.47496 11.7881 9.62163L11.7864 9.6183C11.8169 9.66391 11.8582 9.7013 11.9066 9.72717C11.955 9.75304 12.009 9.76659 12.0639 9.76663H12.0647C12.2053 9.7575 12.3408 9.71088 12.4572 9.63163L12.4547 9.6333C12.6814 9.47746 12.8764 9.29996 13.0456 9.09913L13.0489 9.09496C13.5637 8.51244 14.0253 7.88493 14.4281 7.21996L14.4606 7.16163C14.7472 6.68663 15.0572 6.10163 15.3381 5.5008L15.3897 5.3783L15.7614 4.63496C15.8269 4.44277 15.9531 4.2771 16.121 4.16299C16.2889 4.04888 16.4895 3.99253 16.6922 4.00246H16.6897H18.8822C19.4745 4.00246 19.6967 4.27496 19.5489 4.81996H19.5481Z" fill="#545454"/>
</g>
<defs>
<clipPath id="clip0_256:36">
<rect width="20" height="20" fill="white"/>
</clipPath>
</defs>
</svg>

<svg width="20" height="20" fill="none" xmlns="http://www.w3.org/2000/svg"><g clip-path="url(#clip0_256:36)"><path d="M19.548 4.82a7.17 7.17 0 01-.908 1.882l.016-.025c-.374.623-.82 1.342-1.338 2.157-.444.644-.68.977-.706 1a1.068 1.068 0 00-.222.515l-.001.006c.021.17.1.327.223.446l.334.371c1.783 1.833 2.786 3.097 3.009 3.79a.74.74 0 01-.094.691l.002-.002a.805.805 0 01-.653.24h.003-2.197c-.28 0-.539-.098-.741-.261l.002.002a5.772 5.772 0 01-.792-.79l-.008-.01c-.384-.434-.724-.8-1.021-1.096-.99-.941-1.721-1.412-2.192-1.412a.657.657 0 00-.43.113l.002-.002a.638.638 0 00-.133.487v-.004c-.032.39-.043.78-.032 1.17v-.015.966a.649.649 0 01-.221.631h-.001a2.646 2.646 0 01-1.348.223l.011.001a6.935 6.935 0 01-3.562-1.056l.029.016a9.942 9.942 0 01-3.098-2.937l-.022-.035a21.965 21.965 0 01-2.06-3.327l-.058-.128A20.547 20.547 0 01.314 6.092l-.05-.155a5.538 5.538 0 01-.258-1.279l-.002-.02c0-.422.248-.632.743-.632H2.94a.882.882 0 01.616.187l-.002-.001a1.5 1.5 0 01.35.656l.003.01A21.184 21.184 0 005.23 7.871l-.056-.114c.375.76.828 1.48 1.353 2.146l-.02-.026c.445.546.792.819 1.04.819h.027a.333.333 0 00.29-.166v-.002c.08-.209.111-.433.093-.656v.005-3.232a2.676 2.676 0 00-.267-1.056l.007.016a2.463 2.463 0 00-.375-.58l.002.004a.916.916 0 01-.26-.516v-.005c0-.141.065-.269.167-.352v-.001a.565.565 0 01.384-.148h3.462a.528.528 0 01.465.185h.001c.106.195.152.416.133.636v-.004 4.311c-.014.17.026.34.113.487l-.002-.004a.334.334 0 00.278.149.788.788 0 00.393-.135l-.002.001a2.96 2.96 0 00.59-.534l.004-.004c.515-.583.976-1.21 1.38-1.875l.032-.058c.286-.475.596-1.06.877-1.661l.052-.123.371-.743a.935.935 0 01.931-.633h-.002 2.192c.592 0 .815.273.667.818z" fill="#545454"/></g><defs><clipPath id="clip0_256:36"><path fill="#fff" d="M0 0h20v20H0z"/></clipPath></defs></svg>
